public/icons/svgs/brands/markdown.svg

<svg xmlns="http://www.w3.org/2000/svg" viewBox="0 0 640 512"><!--! Font Awesome Free 7.0.0 by @fontawesome - https://fontawesome.com License - https://fontawesome.com/license/free (Icons: CC BY 4.0, Fonts: SIL OFL 1.1, Code: MIT License) Copyright 2025 Fonticons, Inc. --><path fill="currentColor" d="M593.8 59.1l-547.6 0C20.7 59.1 0 79.8 0 105.2L0 406.7c0 25.5 20.7 46.2 46.2 46.2l547.7 0c25.5 0 46.2-20.7 46.1-46.1l0-301.6c0-25.4-20.7-46.1-46.2-46.1zM338.5 360.6l-61.5 0 0-120-61.5 76.9-61.5-76.9 0 120-61.7 0 0-209.2 61.5 0 61.5 76.9 61.5-76.9 61.5 0 0 209.2 .2 0zm135.3 3.1l-92.3-107.7 61.5 0 0-104.6 61.5 0 0 104.6 61.5 0-92.2 107.7z"/></svg>

<svg xmlns="http://www.w3.org/2000/svg" viewBox="0 0 640 512"><!--! Font Awesome Free 6.2.0 by @fontawesome - https://fontawesome.com License - https://fontawesome.com/license/free (Icons: CC BY 4.0, Fonts: SIL OFL 1.1, Code: MIT License) Copyright 2022 Fonticons, Inc. --><path d="M593.8 59.1H46.2C20.7 59.1 0 79.8 0 105.2v301.5c0 25.5 20.7 46.2 46.2 46.2h547.7c25.5 0 46.2-20.7 46.1-46.1V105.2c0-25.4-20.7-46.1-46.2-46.1zM338.5 360.6H277v-120l-61.5 76.9-61.5-76.9v120H92.3V151.4h61.5l61.5 76.9 61.5-76.9h61.5v209.2zm135.3 3.1L381.5 256H443V151.4h61.5V256H566z"/></svg>
